X:1
T:V pamjat vetsjnuyo
T:V pamjat vetsjnuyo
T:Pritsjasten
T:P. Tsjesnokov, Op. 9 No. 15
C:P. Tsjesnokov, Op. 9 No. 15
%%score [ 1 2 3 4 ]
L:1/8
Q:1/4=60
M:3/4
K:Bb
V:1 treble nm="S1"
V:2 treble nm="S2"
V:3 treble nm="A1"
V:4 treble nm="A2"
V:1
 d!<(! d!<)! |!>(! c2 c!>)! G!<(! c B!<)! |!>(! d3 B!>)! B2 |!mf! B f (ed) c G |!>(! B4 d2!>)! | %5
w: V pa- mjat|vetsj- no- yo bu- det|pra- ved- nik,|V pa- mjat vetsj- * no- yo|bu- det,|
 c4 G2 | B B !breath!B2 B B |!<(! c2 c c B c!<)! | d3!>(! B!>)! B2- | B z z4 | z2 z d!<(! d d!<)! | %11
w: bu- det|pra- ved- nik, V pa- mjat|vetsj- no- yo bu- det|pra- ved- nik,|_|ot slu- kha|
!>(! =e3!>)!!<(! =B ^f!<)! e |!>(! d4!>)! A!<(! d!<)! |!>(! =e4!>)! =B2 |!>(! ^f3!>)! =e =B B | %15
w: zla ne u- bo-|it- cja, ot|slu- kha|zla ne u- bo-|
!>(! d2!>)! d z d!<(! d!<)! |!>(! c2!>)! c G c!<(! B!<)! |!>(! d3 B!>)! B2- | B z!>(! c2!>)! c2 | %19
w: it- cja, V pa- mjat|vetsj- no- yo bu- det|pra- ved- nik,|_ bu- det|
!>(! d d!>)! !breath!d2!f! =f f | e2 e d c d |!>(! d3!>)! B B2 | B f (ed) c G |!>(! B4 d2!>)! | %24
w: pra- ved- nik, Vpa- mjat|vetsj- no- yo bu- det|pra- ved- nik,|V pa- mjat vetsj- * no- yo|bu- det,|
!>(! c4 c2!>)! | c!>(! c c!>)! z!p! d!<(! d!<)! |!>(! c2 c!>)! G c!<(! B!<)! |!>(! d3!>)! B B2- | %28
w: bu- det|pra- ved- nik, Al- li-|lu- i- ja, al- li-|lu- i- ja,|
 B z c2!<(! B2!<)! | d!>(! B B!>)! z!p! B B | G2 G G G G | B3 B B2- | B z!pp! G2 G2 | B3 B B2- | %34
w: _ al- li-|lu- i- ja, al- li-|lu- i- ja, al- li-|lu- i- ja,|_ al- li-|lu- i- ja.|
 B z z2 |] %35
w: _|
V:2
 B!<(! B!<)! |!>(! G2 G!>)! G!<(! G G!<)! |!>(! B3 B!>)! B2 |!mf! B B c2 G G |!>(! G4 G2!>)! | %5
w: V pa- mjat|vetsj- no- yo bu- det|pra- ved- nik,|V pa- mjat vetsj- no- yo|bu- det,|
 G4 G2 | G G !breath!G2 G G |!<(! A2 A A G A!<)! | B3!>(! F!>)! F2- | F z z4 | z2 z A!<(! A A!<)! | %11
w: bu- det|pra- ved- nik, V pa- mjat|vetsj- no- yo bu- det|pra- ved- nik,|_|ot slu- kha|
!>(! =B3!>)!!<(! B ^c!<)! B |!>(! A4!>)! A!<(! A!<)! |!>(! =B4!>)! B2 |!>(! ^c3!>)! =B B B | %15
w: zla ne u- bo-|it- cja, ot|slu- kha|zla ne u- bo-|
!>(! A2!>)! A z _B!<(! B!<)! |!>(! G2!>)! G G G!<(! G!<)! |!>(! B3 B!>)! B2- | B z!>(! B2!>)! A2 | %19
w: it- cja, V pa- mjat|vetsj- no- yo bu- det|pra- ved- nik,|_ bu- det|
!>(! A A!>)! !breath!A2!f! d d | c2 c =B c A |!>(! B3!>)! B B2 | B B c2 G G |!>(! G4 G2!>)! | %24
w: pra- ved- nik, Vpa- mjat|vetsj- no- yo bu- det|pra- ved- nik,|V pa- mjat vetsj- no- yo|bu- det,|
!>(! G4 B2!>)! | A!>(! A A!>)! z!p! B!<(! B!<)! |!>(! G2 G!>)! G G!<(! G!<)! |!>(! B3!>)! F F2- | %28
w: bu- det|pra- ved- nik. Al- li-|lu- i- ja, al- li-|lu- i- ja,|
 F z G2!<(! G2!<)! | B!>(! F F!>)! z!p! F F | E2 E E E E | F3 F F2- | F z!pp! E2 E2 | F3 F F2- | %34
w: _ al- li-|lu- i- ja, al- li-|lu- i- ja, al- li-|lu- i- ja,|_ al- li-|lu- i- ja.|
 F z z2 |] %35
w: _|
V:3
 F!<(! F!<)! |!>(! E2 E!>)! E!<(! E E!<)! |!>(! F3 D!>)! D2 |!mf! F F (GF) E E |!>(! D4 F2!>)! | %5
w: V pa- mjat|vetsj- no- yo bu- det|pra- ved- nik,|V pa- mjat vetsj- * no- yo|bu- det,|
 E4 E2 | D D !breath!D2 G G |!<(! F2 F F F F!<)! | F3!>(! D!>)! D2- | D z z4 | %10
w: bu- det|pra- ved- nik, V pa- mjat|vetsj- no- yo bu- det|pra- ved- nik,|_|
 z2 z ^F!<(! F F!<)! |!>(! G3!>)!!<(! G A!<)! G |!>(! ^F4!>)! F!<(! F!<)! |!>(! G4!>)! G2 | %14
w: ot slu- kha|zla ne u- bo-|it- cja, ot|slu- kha|
!>(! A3!>)! G G G |!>(! ^F2!>)! F z =F!<(! F!<)! |!>(! E2!>)! E E E!<(! E!<)! |!>(! F3 D!>)! D2- | %18
w: zla ne u- bo-|it- cja, V pa- mjat|vetsj- no- yo bu- det|pra- ved- nik,|
 D z!>(! G2!>)! G2 |!>(! ^F F!>)! !breath!F2!f! G G | G2 G G G F |!>(! F3!>)! D D2 | F F (GF) E E | %23
w: _ bu- det|pra- ved- nik, Vpa- mjat|vetsj- no- yo bu- det|pra- ved- nik,|V pa- mjat vetsj- * no- yo|
!>(! D4 F2!>)! |!>(! E4 E2!>)! | F!>(! F F!>)! z!p! F!<(! F!<)! |!>(! E2 E!>)! E E!<(! E!<)! | %27
w: bu- det,|bu- det|pra- ved- nik, Al- li-|lu- i- ja, al- li-|
!>(! F3!>)! D D2- | D z E2!<(! E2!<)! | F!>(! D D!>)! z!p! D D | C2 C C C C | D3 D D2- | %32
w: lu- i- ja,|_ al- li-|lu- i- ja, al- li-|lu- i- ja, al- li-|lu- i- ja,|
 D z!pp! C2 C2 | D3 D D2- | D z z2 |] %35
w: _ al- li-|lu- i- ja.|_|
V:4
 B,!<(! B,!<)! |!>(! B,2 B,!>)! B,!<(! B, B,!<)! |!>(! B,3 B,!>)! B,2 |!mf! D D C2 C C | %4
w: V pa- mjat|vetsj- no- yo bu- det|pra- ved- nik,|V pa- mjat vetsj- no- yo|
!>(! G,4 G,2!>)! | C4 C2 | G, G, !breath!G,2 G G |!<(! F2 F F F F!<)! | B,3!>(! B,!>)! B,2- | %9
w: bu- det,|bu- det|pra- ved- nik, V pa- mjat|vetsj- no- yo bu- det|pra- ved- nik,|
 B, z z!mf! !tenuto!B, !tenuto!B, !tenuto!B, | A,2 A,4- | A,2 A,2 A,2 | A,2 A,4- | %13
w: _ ot slu- kha|zla ne|_ u- bo-|it- cja,|
 A,2- A, A, A, A, |!>(! A,2!>)! A,2 A, A, |!>(! D2!>)! D z B,!<(! B,!<)! | %16
w: _ _ ot slu- kha|zla ne u- bo-|it- cja, V pa- mjat|
!>(! B,2!>)! B, B, B,!<(! B,!<)! |!>(! B,3 B,!>)! B,2- | B, z!>(! E2!>)! E2 | %19
w: vetsj- no- yo bu- det|pra- ved- nik,|_ bu- det|
!>(! D D!>)! !breath!D2!f! =B, B, | C2 C D E F |!>(! B,3!>)! B, B,2 | D D C2 C C | %23
w: pra- ved- nik, Vpa- mjat|vetsj- no- yo bu- det|pra- ved- nik,|V pa- mjat vetsj- no- yo|
!>(! G,4 G,2!>)! |!>(! C4 C2!>)! | F!>(! F F!>)! z!p! B,!<(! B,!<)! | %26
w: bu- det,|bu- det|pra- ved- nik. Al- li-|
!>(! B,2 B,!>)! B, B,!<(! B,!<)! |!>(! B,3!>)! B, B,2- | B, z B,2!<(! B,2!<)! | %29
w: lu- i- ja, al- li-|lu- i- ja,|_ al- li-|
 B,!>(! B, B,!>)! z!p! B, B, | B,2 B, B, B, B, | B,3 B, B,2- | B, z!pp! B,2 B,2 | B,3 B, B,2- | %34
w: lu- i- ja, al- li-|lu- i- ja, al- li-|lu- i- ja,|_ al- li-|lu- i- ja.|
 B, z z2 |] %35
w: _|

